packages/kaspersky-hexa-ui-icons/src/iconsSVGs/28x20/FlagSt.svg

<svg width="28" height="20" viewBox="0 0 28 20" fill="none" xmlns="http://www.w3.org/2000/svg">
<g clip-path="url(#clip0_5138_1708)">
<rect width="28" height="20" rx="2" fill="white"/>
<mask id="mask0_5138_1708" style="mask-type:luminance" maskUnits="userSpaceOnUse" x="0" y="0" width="28" height="20">
<rect width="28" height="20" rx="2" fill="white"/>
</mask>
<g mask="url(#mask0_5138_1708)">
<path fill-rule="evenodd" clip-rule="evenodd" d="M0 20H28V13.3333H0V20Z" fill="#2ACB41"/>
<path fill-rule="evenodd" clip-rule="evenodd" d="M0 6.66667H28V0H0V6.66667Z" fill="#2ACB41"/>
<path fill-rule="evenodd" clip-rule="evenodd" d="M0 13.3333H28V6.66666H0V13.3333Z" fill="#FDD043"/>
<path fill-rule="evenodd" clip-rule="evenodd" d="M0 0L10.6667 10L0 20V0Z" fill="#E71E43"/>
<path fill-rule="evenodd" clip-rule="evenodd" d="M14.6667 11.0933L13.0992 12.1574L13.6268 10.3379L12.1305 9.17596L14.024 9.11548L14.6667 7.33334L15.3093 9.11548L17.2028 9.17596L15.7065 10.3379L16.2341 12.1574L14.6667 11.0933Z" fill="#262626"/>
<path fill-rule="evenodd" clip-rule="evenodd" d="M21.3333 11.0933L19.7659 12.1574L20.2935 10.3379L18.7972 9.17596L20.6907 9.11548L21.3333 7.33334L21.976 9.11548L23.8695 9.17596L22.3732 10.3379L22.9008 12.1574L21.3333 11.0933Z" fill="#262626"/>
</g>
</g>
<defs>
<clipPath id="clip0_5138_1708">
<rect width="28" height="20" fill="white"/>
</clipPath>
</defs>
</svg>

<svg xmlns="http://www.w3.org/2000/svg" width="28" height="20" fill="none" viewBox="0 0 28 20"><g clip-path="url(#a)"><rect width="28" height="20" fill="#fff" rx="2"/><mask id="b" width="28" height="20" x="0" y="0" maskUnits="userSpaceOnUse" style="mask-type:luminance"><rect width="28" height="20" fill="#fff" rx="2"/></mask><g fill-rule="evenodd" clip-rule="evenodd" mask="url(#b)"><path fill="#2acb41" d="M0 20h28v-6.667H0zM0 6.667h28V0H0z"/><path fill="#fdd043" d="M0 13.3333h28V6.6667H0z"/><path fill="#e71e43" d="m0 0 10.6667 10L0 20z"/><path fill="#262626" d="M14.667 11.093 13.1 12.157l.528-1.819-1.496-1.162 1.894-.06.643-1.782.643 1.782 1.894.061-1.496 1.162.528 1.82zm6.666 0-1.567 1.064.528-1.819-1.496-1.162 1.894-.06.643-1.782.643 1.782 1.894.061-1.496 1.162.528 1.82z"/></g></g><defs><clipPath id="a"><path fill="#fff" d="M0 0h28v20H0z"/></clipPath></defs></svg>
